src/lib/packages/icons/src/assets/line/star-circle.svg

<svg width="24" height="24" viewBox="0 0 24 24" fill="none" xmlns="http://www.w3.org/2000/svg">
<path d="M12 22.75C6.072 22.75 1.25 17.927 1.25 12C1.25 6.073 6.072 1.25 12 1.25C17.928 1.25 22.75 6.073 22.75 12C22.75 17.927 17.928 22.75 12 22.75ZM12 2.75C6.899 2.75 2.75 6.899 2.75 12C2.75 17.101 6.899 21.25 12 21.25C17.101 21.25 21.25 17.101 21.25 12C21.25 6.899 17.101 2.75 12 2.75ZM14.696 17.5C14.482 17.5 14.267 17.448 14.069 17.344L12 16.255L9.93298 17.343C9.47598 17.583 8.93299 17.544 8.51599 17.241C8.09799 16.937 7.89198 16.431 7.97998 15.921L8.375 13.616L6.646 11.929C6.287 11.579 6.15994 11.064 6.31494 10.587C6.46994 10.11 6.87497 9.76902 7.37097 9.69702L9.76001 9.349L10.7939 7.25098C11.0229 6.78698 11.484 6.5 12.001 6.5C12.518 6.5 12.98 6.78801 13.208 7.25201L14.2419 9.34998L16.632 9.698C17.127 9.77 17.531 10.111 17.687 10.588C17.842 11.065 17.715 11.58 17.356 11.93L15.627 13.617L16.0229 15.924C16.1099 16.434 15.904 16.94 15.486 17.243C15.249 17.413 14.974 17.5 14.696 17.5ZM12 14.729C12.209 14.729 12.418 14.779 12.608 14.88L14.49 15.871L14.131 13.772C14.058 13.347 14.198 12.914 14.507 12.613L16.03 11.126L13.924 10.82C13.498 10.758 13.131 10.49 12.941 10.103L12.001 8.19598L11.061 10.104C10.871 10.49 10.503 10.758 10.078 10.82L7.97205 11.126L9.495 12.613C9.804 12.913 9.94397 13.347 9.87097 13.772L9.51196 15.87L11.394 14.879C11.582 14.779 11.791 14.729 12 14.729ZM16.415 11.182H16.425H16.415ZM11.861 7.914C11.861 7.915 11.861 7.915 11.861 7.914C11.861 7.915 11.861 7.915 11.861 7.914Z" fill="currentColor"/>
</svg>

<svg xmlns="http://www.w3.org/2000/svg" width="24" height="24" fill="none"><path fill="currentColor" d="M12 22.75C6.072 22.75 1.25 17.927 1.25 12S6.072 1.25 12 1.25 22.75 6.073 22.75 12 17.928 22.75 12 22.75Zm0-20c-5.101 0-9.25 4.149-9.25 9.25s4.149 9.25 9.25 9.25 9.25-4.149 9.25-9.25S17.101 2.75 12 2.75Zm2.696 14.75c-.214 0-.429-.052-.627-.156L12 16.255l-2.067 1.088c-.457.24-1 .201-1.417-.102a1.34 1.34 0 0 1-.536-1.32l.395-2.305-1.729-1.687a1.302 1.302 0 0 1-.331-1.342 1.3 1.3 0 0 1 1.056-.89l2.389-.348 1.034-2.098c.229-.464.69-.751 1.207-.751.517 0 .979.288 1.207.752l1.034 2.098 2.39.348c.495.072.899.413 1.055.89.155.477.028.992-.331 1.342l-1.729 1.687.396 2.307a1.34 1.34 0 0 1-.537 1.319c-.237.17-.512.257-.79.257ZM12 14.729c.209 0 .418.05.608.151l1.882.991-.359-2.099a1.308 1.308 0 0 1 .376-1.159l1.523-1.487-2.106-.306a1.304 1.304 0 0 1-.983-.717l-.94-1.907-.94 1.908c-.19.386-.558.654-.983.716l-2.106.306 1.523 1.487c.309.3.449.734.376 1.159l-.359 2.098 1.882-.991c.188-.1.397-.15.606-.15Zm4.415-3.547h.01-.01Zm-4.554-3.268c0 .001 0 .001 0 0 0 .001 0 .001 0 0Z"/></svg>
